X: 24129
T: Longford Tinker, The
R: reel
M: 4/4
K: Bdorian
dBBA ~B3c|dB~B2 fgfe|dBBA BGdB|ABde ~f3e|
dBBA ~B3c|dB~B2 f2fg|fAAF ~A3D|FAde ~f3e||
d2fd egfe|defa gefe|d2fd efge|faaf gbfe|
d2fd egfe|defa ~g3a|b2af gfed|faaf gfed||
fa~a2 fAdA|faaf gfed|gb~b2 gBef|gebe gfed|
fa~a2 fAdA|faaf ~g3a|b2af gfed|faaf gfef||

